icons/kitty-dark.svg

<svg width="256" height="256" viewBox="0 0 256 256" fill="none" xmlns="http://www.w3.org/2000/svg">
<path d="M196 0H60C26.8629 0 0 26.8629 0 60V196C0 229.137 26.8629 256 60 256H196C229.137 256 256 229.137 256 196V60C256 26.8629 229.137 0 196 0Z" fill="#282828"/>
<path d="M175.505 55.3374H86.8726V197.888H175.505V55.3374Z" fill="#DDDDDD"/>
<path d="M82.5241 213.797H174.476C175.295 213.797 176.106 213.636 176.862 213.322C177.618 213.009 178.306 212.55 178.885 211.971C179.463 211.392 179.923 210.704 180.236 209.948C180.549 209.192 180.71 208.381 180.71 207.562V115.61C180.71 113.957 180.053 112.371 178.884 111.202C177.715 110.033 176.129 109.376 174.476 109.376H82.5241C80.8707 109.376 79.2851 110.033 78.116 111.202C76.9468 112.371 76.29 113.957 76.29 115.61V207.562C76.29 209.215 76.9468 210.801 78.116 211.97C79.2851 213.139 80.8707 213.797 82.5241 213.797ZM131.773 179.956H164.813C165.805 179.956 166.757 180.351 167.458 181.052C168.16 181.754 168.554 182.705 168.554 183.697C168.554 184.69 168.16 185.641 167.458 186.343C166.757 187.044 165.805 187.438 164.813 187.438H131.774C130.782 187.438 129.83 187.044 129.129 186.343C128.427 185.641 128.033 184.69 128.033 183.698C128.033 182.706 128.427 181.754 129.129 181.053C129.83 180.351 130.782 179.957 131.774 179.957M92.038 139.623C91.3806 138.914 91.0237 137.977 91.0422 137.01C91.0607 136.043 91.4532 135.12 92.1373 134.436C92.8214 133.752 93.7438 133.36 94.711 133.342C95.6782 133.323 96.6149 133.68 97.3244 134.338L120.69 157.689C121.391 158.391 121.784 159.342 121.784 160.333C121.784 161.324 121.391 162.275 120.69 162.977L97.3244 186.342C96.6156 187.005 95.677 187.367 94.7068 187.35C93.7366 187.334 92.8106 186.941 92.1245 186.255C91.4384 185.569 91.0459 184.643 91.0297 183.673C91.0136 182.702 91.3751 181.764 92.038 181.055L112.76 160.333L92.038 139.623Z" fill="black"/>
<path fill-rule="evenodd" clip-rule="evenodd" d="M107.398 97.704C109.057 97.704 110.385 94.5503 110.385 90.4949C110.385 86.4403 109.057 83.2866 107.398 83.2866C105.739 83.2866 104.411 86.4403 104.411 90.4957C104.411 94.5503 105.738 97.704 107.398 97.704Z" fill="#C0C81F"/>
<path fill-rule="evenodd" clip-rule="evenodd" d="M193.027 43.6512C188.972 39.3716 170.5 44.553 159.236 51.5362C150.45 47.0308 139.863 44.3271 128.599 44.3271C117.11 44.3271 106.521 47.0308 97.7355 51.5362C86.4718 44.553 67.774 39.1457 63.9445 43.6512C59.8899 48.1567 66.874 66.8545 75.2081 77.2173C74.5322 79.9209 74.0822 82.6245 74.0822 85.5523C74.0822 94.5633 77.9118 102.899 84.445 109.657H121.615C120.489 107.405 122.066 106.053 128.824 106.053C135.582 106.278 136.933 107.405 136.033 109.657H173.203C179.736 102.898 183.565 94.3391 183.565 85.5523C183.565 82.6245 183.115 79.9209 182.44 77.2173C190.324 66.8545 197.082 47.9317 193.027 43.6512ZM107.422 103.124C99.5382 103.124 93.005 96.591 93.005 88.7059C93.005 80.8209 99.5382 74.2886 107.423 74.2886C115.308 74.2886 121.841 80.8218 121.841 88.7069C121.841 96.5919 115.307 103.124 107.422 103.124ZM149.774 103.124C141.889 103.124 135.356 96.591 135.356 88.7059C135.356 80.8209 141.889 74.2886 149.774 74.2886C157.659 74.2886 164.193 80.8218 164.193 88.7069C164.193 96.5919 157.884 103.124 149.774 103.124Z" fill="#784421"/>
<path fill-rule="evenodd" clip-rule="evenodd" d="M171.302 102.224C184.819 85.3277 212.527 77.2177 231 88.9323C209.374 85.5528 189.775 91.185 171.302 102.224Z" fill="#2B1100"/>
<path fill-rule="evenodd" clip-rule="evenodd" d="M170.401 98.1688C178.06 80.146 200.814 68.4323 219.06 74.7396C199.913 77.2174 184.369 84.6524 170.401 98.1688ZM170.175 106.954C184.143 93.6624 215.006 89.157 224.467 103.124C205.319 97.042 188.648 99.7447 170.176 106.954" fill="#2B1100"/>
<path fill-rule="evenodd" clip-rule="evenodd" d="M85.698 102.224C72.1816 85.3277 44.4728 77.2177 26 88.9323C47.6265 85.5528 67.2252 91.185 85.698 102.224Z" fill="#2B1100"/>
<path fill-rule="evenodd" clip-rule="evenodd" d="M86.5989 98.1688C78.9398 80.146 56.1865 68.4323 37.9396 74.7396C57.0874 77.2174 72.6316 84.6524 86.5989 98.1688ZM86.8248 106.954C72.8566 93.6624 41.9942 89.157 32.5332 103.124C51.681 97.042 68.3529 99.7447 86.8248 106.954Z" fill="#2B1100"/>
<path fill-rule="evenodd" clip-rule="evenodd" d="M69.0269 93.6626C63.3955 93.6626 58.665 96.5921 56.4123 101.097H55.7363C49.654 101.097 44.4727 105.602 44.4727 111.234C44.4727 119.119 52.5818 123.399 60.0159 120.695C64.5214 127.229 74.2083 127.68 77.8137 120.695C83.2192 120.47 92.0051 119.57 93.357 111.234C94.2579 105.602 88.4006 101.097 82.0933 101.097H81.4174C79.6155 96.5912 74.6592 93.6626 69.0278 93.6626M187.974 93.6626C193.605 93.6626 198.336 96.5921 200.588 101.097H201.264C204.418 101.097 212.528 105.602 212.528 111.234C212.528 119.119 204.419 123.399 196.985 120.695C192.478 127.229 182.792 127.68 179.187 120.695C173.781 120.47 164.995 119.57 163.644 111.234C162.743 105.602 171.753 101.097 174.907 101.097H175.583C177.385 96.5912 182.341 93.6626 187.973 93.6626" fill="#483737"/>
<path fill-rule="evenodd" clip-rule="evenodd" d="M149.273 97.704C150.933 97.704 152.261 94.5503 152.261 90.4949C152.261 86.4403 150.933 83.2866 149.273 83.2866C147.614 83.2866 146.285 86.4403 146.285 90.4957C146.285 94.5503 147.613 97.704 149.273 97.704Z" fill="#C0C81F"/>
</svg>

<svg xmlns="http://www.w3.org/2000/svg" width="256" height="256" fill="none"><path fill="#282828" d="M196 0H60C26.863 0 0 26.863 0 60v136c0 33.137 26.863 60 60 60h136c33.137 0 60-26.863 60-60V60c0-33.137-26.863-60-60-60"/><path fill="#DDD" d="M175.505 55.337H86.873v142.551h88.632z"/><path fill="#000" d="M82.524 213.797h91.952a6.234 6.234 0 0 0 6.234-6.235V115.61a6.235 6.235 0 0 0-6.234-6.234H82.524a6.234 6.234 0 0 0-6.234 6.234v91.952a6.234 6.234 0 0 0 6.234 6.235m49.249-33.841h33.04a3.742 3.742 0 0 1 2.645 6.387 3.74 3.74 0 0 1-2.645 1.095h-33.039a3.741 3.741 0 1 1 0-7.481m-39.736-40.334a3.738 3.738 0 0 1 2.673-6.281 3.74 3.74 0 0 1 2.613.996l23.366 23.351a3.74 3.74 0 0 1 0 5.288l-23.366 23.365a3.737 3.737 0 0 1-5.2-.087 3.74 3.74 0 0 1-.086-5.2l20.722-20.722z"/><path fill="#C0C81F" fill-rule="evenodd" d="M107.398 97.704c1.659 0 2.987-3.154 2.987-7.21 0-4.054-1.328-7.207-2.987-7.207s-2.987 3.153-2.987 7.209c0 4.054 1.327 7.208 2.987 7.208" clip-rule="evenodd"/><path fill="#784421" fill-rule="evenodd" d="M193.027 43.651c-4.055-4.28-22.527.902-33.791 7.885-8.786-4.505-19.373-7.209-30.637-7.209-11.489 0-22.078 2.704-30.863 7.21-11.264-6.984-29.962-12.391-33.792-7.886-4.054 4.506 2.93 23.204 11.264 33.566-.676 2.704-1.126 5.407-1.126 8.335 0 9.011 3.83 17.347 10.363 24.105h37.17c-1.126-2.252.451-3.604 7.209-3.604 6.758.225 8.109 1.352 7.209 3.604h37.17c6.533-6.759 10.362-15.318 10.362-24.105 0-2.928-.45-5.631-1.125-8.335 7.884-10.362 14.642-29.285 10.587-33.566m-85.605 59.473c-7.884 0-14.417-6.533-14.417-14.418s6.533-14.417 14.418-14.417 14.418 6.533 14.418 14.418-6.534 14.417-14.419 14.417m42.352 0c-7.885 0-14.418-6.533-14.418-14.418s6.533-14.417 14.418-14.417 14.419 6.533 14.419 14.418-6.309 14.417-14.419 14.417" clip-rule="evenodd"/><path fill="#2B1100" fill-rule="evenodd" d="M171.302 102.224C184.819 85.328 212.527 77.218 231 88.932c-21.626-3.38-41.225 2.253-59.698 13.292" clip-rule="evenodd"/><path fill="#2B1100" fill-rule="evenodd" d="M170.401 98.169c7.659-18.023 30.413-29.737 48.659-23.43-19.147 2.478-34.691 9.913-48.659 23.43m-.226 8.785c13.968-13.292 44.831-17.797 54.292-3.83-19.148-6.082-35.819-3.38-54.291 3.83m-84.478-4.73C72.182 85.328 44.473 77.218 26 88.932c21.627-3.38 41.225 2.253 59.698 13.292" clip-rule="evenodd"/><path fill="#2B1100" fill-rule="evenodd" d="M86.599 98.169c-7.66-18.023-30.412-29.737-48.66-23.43 19.148 2.478 34.693 9.913 48.66 23.43m.226 8.785c-13.968-13.292-44.83-17.797-54.292-3.83 19.148-6.082 35.82-3.38 54.292 3.83" clip-rule="evenodd"/><path fill="#483737" fill-rule="evenodd" d="M69.027 93.663c-5.632 0-10.362 2.93-12.615 7.434h-.676c-6.082 0-11.263 4.505-11.263 10.137 0 7.885 8.109 12.165 15.543 9.461 4.505 6.534 14.192 6.985 17.798 0 5.405-.225 14.191-1.125 15.543-9.461.9-5.632-4.956-10.137-11.264-10.137h-.676c-1.802-4.506-6.758-7.434-12.39-7.434m118.947 0c5.631 0 10.362 2.93 12.614 7.434h.676c3.154 0 11.264 4.505 11.264 10.137 0 7.885-8.109 12.165-15.543 9.461-4.507 6.534-14.193 6.985-17.798 0-5.406-.225-14.192-1.125-15.543-9.461-.901-5.632 8.109-10.137 11.263-10.137h.676c1.802-4.506 6.758-7.434 12.39-7.434" clip-rule="evenodd"/><path fill="#C0C81F" fill-rule="evenodd" d="M149.273 97.704c1.66 0 2.988-3.154 2.988-7.21 0-4.054-1.328-7.207-2.988-7.207s-2.988 3.153-2.988 7.209c0 4.054 1.328 7.208 2.988 7.208" clip-rule="evenodd"/></svg>
